X: 21642
Q: "Moderate."
M: 3/4
L: 1/8
K: D
{de}f3e dF | {F}E3D FA |\
e3f cd | e3d cA |\
{c}B3A ^Gd | {d}c3A de |\
f3F GA | B3c de |\
f2F F<E | D3 |]


